X: 843
T: Git Ey Akan Gözyaşım
C: Münir Nurettin Selçuk
O: Turkey
F: http://compmusic.upf.edu/node/140
N: saba--ilahi--duyek--git_ey--munir_nurettin_selcuk
N: makam= saba
N: form= ilahi
N: usul= duyek = 8/4
M: 8/4
L: 1/16
K: C _2/4B _3/4d  
Q: 1/4=132
%%MIDI tuningsystem comma53
B2 c6 c8  | d3c B2 c2 B2 e2 d2 c2  | \
w:  Dost   |  dost   | 
B2 c4 G2 A2 B2 c4  | B2 c4 G2 c4 e3d  | 
w:  dost  *  SAZ  |  Git_ ey  a kan  göz  | 
dc c6 c2 d2 c2 B2  | c4 z2 d2 e2 f2 g2 _7/8a2  | \
w:  ya *  şım   |  git  o  câ *  nâ  | 
g2 f2 e2 d2 c3B e2 dc  | 
w:  nı ma  *  *  söy  | 
B2 c4 B2 B2 cB A4  | B2 c4 G2 c4 e3d  | \
w:  le   *  SAZ  |  Git_ ey  a kan  göz  | 
dc c6 c2 d2 c2 B2  | c4 z2 d2 e2 f2 g2 _7/8a2  | 
w:  ya *  şım   |  git  o  câ *  nâ  | 
g2 f2 e2 d2 c3B e2 dc  | B2 c4 G2 A2 B2 c4  | \
w:  nı ma  *  *  söy  |  le   *  SAZ  | 
z2 e2 d2 c2 c2 {e}dc d3c  | 
w:  Ba *  ğı ma   | 
c2 d2 c2 d2 cB BA B4  | c2 e2 d2 c2 c2 d2 c2 B2  | \
w:  ba ha *  rı ma   |  o  sey *  *  râ *  *  nı   | 
c2 {d}cd cB BA B8  | 
w:  ma  *  *  *  söy *  *  *  le    | 
d3c B2 d2 cB BA B4  | z2 c2 B2 c2 B2 A6  | \
w:  SAZ  |  Ba *  ğı ma   | 
B2 c2 B2 cd cB BA B4  | 
w:  ba ha *  rı *  ma   | 
c2 d2 c2 B2 B3A A2 A2  | A2 c2 B2 c2 B2 A6  | \
w:  o  sey *  *  râ *  *  nı  |  ma  *  *  *  söy  | 
A2 c4 BA A6 z2  | e3=d c2 de d2 e6  | 
w:  le    |  SAZ  | 
=d2 e6 e8  | f3e =d2 e2 d2 g2 f2 e2  | \
w:  Dost   |  dost   | 
=d2 e6 d2 cd e4  | =d4 e2 e2 e4 e4  | 
w:  dost  *  SAZ  |  Bir  ge ce cik  an  | 
e2 g2 ^2/4f2 e2 =d2 c2 B2 A2  | =d2 e6 e2 {g}^2/4fe d4  | \
w:  sın  *  *  *  *  *  *  da   |  be nim   | 
z2 g2 ^3/4f2 g2 f3e =d2 e2  | 
w:  ge ce *  le *  *  ri  | 
=d2 e6 c2 Bc A4  | =d4 e2 e2 e4 e4  | \
w:  mi   *  SAZ  |  Bir  ge ce cik  an  | 
e2 g2 ^2/4f2 e2 =d2 c2 B2 A2  | =d2 e6 e2 {g}^2/4fe d4  | 
w:  sın  *  *  *  *  *  *  da   |  be nim   | 
z2 g2 ^3/4f2 g2 f3e =d2 e2  | =d2 e6 g2 fe f4  | \
w:  ge ce *  le *  *  ri  |  mi   *  SAZ  | 
e4 f4 g2 _7/8a2 g2 a2  | g2 _7/8ag gf fe f6 z2  | 
w:  Çok  gör me sin   |  *  *  *  su *  çu *  mu   | 
f2 _7/8a2 g2 f2 e3d c2 a2  | g3f f3e e3d d3c  | \
w:  o  câ *  *  nâ *  *  nı  |  ma   | 
d3c B2 c2 B2 e4 dc  | 
w:  söy  | 
B2 c4 G2 A2 B2 c4  | z2 e2 d2 c2 c2 {e}dc d3c  | \
w:  le   *  SAZ  |  Ba *  ğı ma   | 
c2 d2 c2 d2 cB BA B4  | 
w:  ba ha *  rı ma   | 
c2 e2 d2 c2 c2 d2 c2 B2  | c2 {d}cd cB BA B8  | \
w:  o  sey *  *  râ *  *  nı   |  ma  *  *  *  söy *  *  *  le    | 
d3c B2 d2 cB BA B4  | 
w:  SAZ  | 
z2 c2 B2 c2 B2 A6  | B2 c2 B2 cd cB BA B4  | \
w:  Ba *  ğı ma   |  ba ha *  rı *  ma   | 
c2 d2 c2 B2 B3A A2 A2  | 
w:  o  sey *  *  râ *  *  nı  | 
A2 c2 B2 c2 B2 A6  | A2 c4 BA A6 z2  | |


